X:1
T:Jenny Pippin
L:1/8
R: reel
M:4/4
K:D
dA DA BA FA | dA DF Ad fd | BA FA d AD F | AB df ed dc :|
 df af bf af | df af gf ef | df af bf af | ge ag fd dc | 
df af bf af | bf af g3 b | af ef dB AF | AB de fe dc |] 
